X: 12
T:Cuillin Reel
% Nottingham Music Database
S:Mick Peat
P:"AAAABB"
M:4/4
L:1/4
K:G
d|:"G"gd/2g/2 B/2g/2d/2g/2|"Am"e/2d/2c/2d/2 "D"e/2d/2e/2f/2|\
"G"gd/2g/2 B/2g/2d/2g/2|"D"c/2e/2d/2c/2 "G"B/2G/2G/2d/2:|
|:"G"B/2d/2G/2d/2 B/2d/2G/2d/2|"D/nF"c/2d/2A/2d/2 c/2d/2A/2d/2|\
"G"B/2d/2G/2d/2 B/2d/2G/2d/2|"Am"e/2d/2c/2B/2 "D"A/2F/2D/2F/2|
"G"B/2d/2G/2d/2 B/2d/2G/2d/2|"C"G/2e/2c/2e/2 G/2e/2c/2e/2|\
"D"d/2e/2F/2g/2 a/2c'/2b/2a/2| [1"G"g2 gd:|[2 "G" g g g||<end>
<start>
